exports/breakdown-of-united-nations-peacekeeping-forces-around-the-world-1992-2014_v1_850x600.svg

<svg xmlns="http://www.w3.org/2000/svg" version="1.1" style="background-color:#fff;-webkit-font-smoothing:antialiased" width="850" height="600" font-family="'Helvetica Neue',Helvetica,Arial,sans-serif" font-size="18" text-rendering="optimizeLegibility"><g class="ChartTab"><g class="HeaderView"><g opacity=".8" transform="matrix(.31 0 0 .31 770 15)"><a xmlns:xlink="http://www.w3.org/1999/xlink" xlink:href="https://ourworldindata.org" target="_blank"><g><path fill="#1B2543" d="M0 0h211.2v130.1H0z"/><path fill="#E63912" d="M0 112.2h211.2v17.9H0z"/><g><path fill="none" d="M1.2 12.3h210.2v99.2H1.2z"/><path fill="#FFF" d="M37.8 32.2c0 12.7-7.7 19.4-17.1 19.4-9.7 0-16.6-7.5-16.6-18.7 0-11.7 7.3-19.3 17.1-19.3 10.1.1 16.6 7.7 16.6 18.6zm-28.6.6c0 7.9 4.3 14.9 11.8 14.9 7.5 0 11.8-6.9 11.8-15.3 0-7.3-3.8-14.9-11.8-14.9-7.9 0-11.8 7.3-11.8 15.3zM62.7 43.8c0 2.7.1 5.1.2 7.2h-4.3l-.3-4.3h-.1c-1.3 2.1-4 4.9-8.8 4.9-4.2 0-9.1-2.3-9.1-11.6V24.6h4.8v14.6c0 5 1.5 8.4 5.9 8.4 3.2 0 5.5-2.2 6.3-4.4.3-.7.4-1.6.4-2.5V24.6h4.8v19.2zM67.3 32.8c0-3.1-.1-5.8-.2-8.2h4.2l.2 5.2h.2c1.2-3.5 4.1-5.8 7.3-5.8.5 0 .9.1 1.4.2v4.5c-.5-.1-1-.2-1.6-.2-3.4 0-5.8 2.6-6.5 6.2-.1.7-.2 1.4-.2 2.2V51h-4.8V32.8zM95.4 51L86 14.2h5l4.4 18.6c1.1 4.6 2.1 9.2 2.7 12.7h.1c.6-3.7 1.8-8 3-12.8l4.9-18.5h5l4.5 18.7c1 4.4 2 8.7 2.6 12.6h.1c.8-4 1.8-8.1 3-12.7l4.9-18.5h4.9L120.6 51h-5L111 31.9c-1.1-4.7-1.9-8.3-2.4-12h-.1c-.7 3.7-1.5 7.3-2.8 12L100.4 51h-5zM154.9 37.6c0 9.8-6.8 14-13.2 14-7.2 0-12.7-5.2-12.7-13.6 0-8.8 5.8-14 13.1-14 7.7 0 12.8 5.5 12.8 13.6zm-21 .3c0 5.8 3.3 10.1 8 10.1 4.6 0 8-4.3 8-10.3 0-4.5-2.2-10.1-7.9-10.1s-8.1 5.2-8.1 10.3zM158.2 32.8c0-3.1-.1-5.8-.2-8.2h4.2l.2 5.2h.2c1.2-3.5 4.1-5.8 7.3-5.8.5 0 .9.1 1.4.2v4.5c-.5-.1-1-.2-1.6-.2-3.4 0-5.8 2.6-6.5 6.2-.1.7-.2 1.4-.2 2.2V51h-4.8V32.8zM173.5 12.3h4.8V51h-4.8V12.3zM206.5 12.3v31.9c0 2.3.1 5 .2 6.8h-4.3l-.2-4.6h-.2c-1.5 2.9-4.7 5.2-9 5.2-6.4 0-11.3-5.4-11.3-13.4-.1-8.8 5.4-14.2 11.9-14.2 4 0 6.8 1.9 8 4h.1V12.3h4.8zm-4.8 23.1c0-.6-.1-1.4-.2-2a7 7 0 00-6.9-5.6c-5 0-7.9 4.4-7.9 10.2 0 5.3 2.6 9.8 7.8 9.8 3.2 0 6.2-2.1 7.1-5.7.2-.7.2-1.3.2-2.1v-4.6zM42.8 64c.1 1.6-1.1 2.9-3.1 2.9-1.7 0-2.9-1.3-2.9-2.9 0-1.7 1.3-3 3-3 1.9 0 3 1.3 3 3zm-5.4 33.8V71.4h4.8v26.4h-4.8zM47.5 78.6c0-2.7-.1-5-.2-7.1h4.3l.3 4.4h.1c1.3-2.5 4.4-5 8.8-5 3.7 0 9.4 2.2 9.4 11.2v15.8h-4.8V82.6c0-4.3-1.6-7.8-6.1-7.8-3.2 0-5.6 2.2-6.5 4.9-.2.6-.3 1.4-.3 2.2v15.9h-4.8V78.6zM84 61.6c2.9-.4 6.3-.8 10.1-.8 6.8 0 11.7 1.6 14.9 4.6 3.3 3 5.2 7.3 5.2 13.2 0 6-1.9 10.9-5.3 14.3-3.4 3.4-9.1 5.3-16.3 5.3-3.4 0-6.2-.2-8.6-.4V61.6zm4.8 32.5c1.2.2 3 .3 4.8.3 10.2 0 15.7-5.7 15.7-15.6.1-8.7-4.9-14.2-14.9-14.2-2.5 0-4.3.2-5.6.5v29zM132.1 97.8l-.4-3.3h-.2a9.79 9.79 0 01-8.1 3.9c-5.4 0-8.1-3.8-8.1-7.6 0-6.4 5.7-9.9 15.9-9.8v-.5c0-2.2-.6-6.1-6-6.1-2.5 0-5 .8-6.9 2l-1.1-3.2c2.2-1.4 5.4-2.3 8.7-2.3 8.1 0 10.1 5.5 10.1 10.8v9.9c0 2.3.1 4.5.4 6.3h-4.3zm-.7-13.4c-5.3-.1-11.2.8-11.2 5.9 0 3.1 2.1 4.6 4.5 4.6 3.4 0 5.6-2.2 6.4-4.4.2-.5.3-1 .3-1.5v-4.6zM146.6 63.9v7.6h6.9v3.7h-6.9v14.2c0 3.3.9 5.1 3.6 5.1 1.3 0 2.2-.2 2.8-.3l.2 3.6c-.9.4-2.4.7-4.3.7-2.2 0-4-.7-5.2-2-1.4-1.4-1.9-3.8-1.9-6.9V75.1h-4.1v-3.7h4.1v-6.3l4.8-1.2zM171.4 97.8l-.4-3.3h-.2a9.79 9.79 0 01-8.1 3.9c-5.4 0-8.1-3.8-8.1-7.6 0-6.4 5.7-9.9 15.9-9.8v-.5c0-2.2-.6-6.1-6-6.1-2.5 0-5 .8-6.9 2l-1.1-3.2c2.2-1.4 5.4-2.3 8.7-2.3 8.1 0 10.1 5.5 10.1 10.8v9.9c0 2.3.1 4.5.4 6.3h-4.3zm-.7-13.4c-5.3-.1-11.2.8-11.2 5.9 0 3.1 2.1 4.6 4.5 4.6 3.4 0 5.6-2.2 6.4-4.4.2-.5.3-1 .3-1.5v-4.6z"/></g></g></a></g><a href="https://ourworldindata.org/grapher/breakdown-of-united-nations-peacekeeping-forces" target="_blank"><text font-size="27" x="15" y="36.6" fill="#555"><tspan x="15" y="36.6">Breakdown of United Nations peacekeeping forces</tspan></text></a></g><g class="StackedArea"><defs><clipPath id="a"><path d="M78.97 0h820v933.8h-820z"/></clipPath></defs><g class="AxisBoxView"><g class="HorizontalAxis" fill="#666" text-anchor="middle" font-size="16.2"><text x="79" y="541.9">1992</text><text x="163.5" y="541.9">1995</text><text x="304.4" y="541.9">2000</text><text x="445.3" y="541.9">2005</text><text x="586.2" y="541.9">2010</text><text x="698.9" y="541.9">2014</text></g><g class="VerticalAxis" fill="#666" dominant-baseline="middle" text-anchor="end" font-size="16.2"><text x="73.97" y="520.7">0</text><text x="73.97" y="435">20,000</text><text x="73.97" y="349.4">40,000</text><text x="73.97" y="263.7">60,000</text><text x="73.97" y="178.1">80,000</text><text x="73.97" y="92.4">100,000</text></g><g class="AxisGridLines"><path stroke="#ccc" d="M78.97 520.7h619.97"/><path stroke="#ddd" stroke-dasharray="3,2" d="M78.97 435h619.97M78.97 349.4h619.97M78.97 263.7h619.97M78.97 178.1h619.97M78.97 92.4h619.97"/></g><g class="AxisGridLines" stroke="#ddd" stroke-dasharray="3,2"><path d="M163.5 520.7V75M304.4 520.7V75M445.3 520.7V75M586.2 520.7V75"/></g></g><g clip-path="url(#a)"><g class="HeightedLegend clickable"><g class="legendMark"><path fill="#34983f" d="M703.94 100.35h10v2.5h-10z"/><text font-size="14.4" x="718.9" y="105.9" fill="#333"><tspan x="718.94" y="105.92">Civilian police</tspan></text></g><g class="legendMark"><path fill="#ca2628" d="M703.94 130.85h10v2.5h-10z"/><text font-size="14.4" x="718.9" y="136.4" fill="#333"><tspan x="718.94" y="136.42">Military Observers</tspan></text></g><g class="legendMark"><path fill="#3360a9" d="M703.94 327.05h10v2.5h-10z"/><text font-size="14.4" x="718.9" y="332.6" fill="#333"><tspan x="718.94" y="332.62">Troops</tspan></text></g></g><g class="Areas"><path d="M79 325.1l28.1-90 28.2 6.7L163.5 401l28.2 30.5 28.2 43.5 28.2-.2 28.1-8.8 28.2-67.5 28.2-39.1 28.2 22 28.2-29.1 28.1-71.1 28.2-17.8 28.2-38.9 28.2-5.8 28.2-30.2 28.1-23.7 28.2 4.6 28.2-3 28.2 12.7 28.2-15.1 28.1-28.1.04 384.8H78.97" fill="#3360a9" fill-opacity=".7" class="World_0-area"/><path d="M79 316.2l28.1-90.7 28.2 6.6 28.2 160.4 28.2 33.2 28.2 44.7 28.2.5 28.1-10.3 28.2-68.4 28.2-40.5 28.2 22 28.2-29.4 28.1-71.8 28.2-19.9 28.2-38.9 28.2-6.7 28.2-29.8 28.1-22.3 28.2 4.7 28.2-1.7 28.2 12.8 28.2-14.7 28.1-27.7v7.6L670.8 164l-28.2 15.1-28.2-12.7-28.2 3-28.2-4.6-28.1 23.7-28.2 30.2-28.2 5.8-28.2 38.9-28.2 17.8-28.1 71.1-28.2 29.1-28.2-22-28.2 39.1-28.2 67.5-28.1 8.8-28.2.2-28.2-43.5-28.2-30.5-28.2-159.2-28.2-6.7-28.1 90" fill="#ca2628" fill-opacity=".7" class="World_1-area"/><path d="M79 297.3l28.1-76.2 28.2 2.5 28.2 164.2 28.2 26.2 28.2 43 28.2 2.3 28.1-17.7 28.2-82.5 28.2-40.2 28.2 32 28.2-26.4 28.1-81 28.2-21.9 28.2-45.1 28.2-16.9 28.2-31.7 28.1-27.8 28.2-1.8 28.2-1.7 28.2 21.1 28.2-17.6L698.9 75v53.3L670.8 156l-28.2 14.7-28.2-12.8-28.2 1.7-28.2-4.7-28.1 22.3-28.2 29.8-28.2 6.7-28.2 38.9-28.2 19.9-28.1 71.8-28.2 29.4-28.2-22-28.2 40.5-28.2 68.4-28.1 10.3-28.2-.5-28.2-44.7-28.2-33.2-28.2-160.4-28.2-6.6L79 316.2" fill="#34983f" fill-opacity=".7" class="World_2-area"/><path stroke-linecap="round" d="M79 325.1l28.1-90 28.2 6.7L163.5 401l28.2 30.5 28.2 43.5 28.2-.2 28.1-8.8 28.2-67.5 28.2-39.1 28.2 22 28.2-29.1 28.1-71.1 28.2-17.8 28.2-38.9 28.2-5.8 28.2-30.2 28.1-23.7 28.2 4.6 28.2-3 28.2 12.7 28.2-15.1 28.1-28.1" stroke="#2B508D" stroke-opacity=".7" stroke-width=".5" fill="none" class="World_0-border"/><path stroke-linecap="round" d="M79 316.2l28.1-90.7 28.2 6.6 28.2 160.4 28.2 33.2 28.2 44.7 28.2.5 28.1-10.3 28.2-68.4 28.2-40.5 28.2 22 28.2-29.4 28.1-71.8 28.2-19.9 28.2-38.9 28.2-6.7 28.2-29.8 28.1-22.3 28.2 4.7 28.2-1.7 28.2 12.8 28.2-14.7 28.1-27.7" stroke="#A92021" stroke-opacity=".7" stroke-width=".5" fill="none" class="World_1-border"/><path stroke-linecap="round" d="M79 297.3l28.1-76.2 28.2 2.5 28.2 164.2 28.2 26.2 28.2 43 28.2 2.3 28.1-17.7 28.2-82.5 28.2-40.2 28.2 32 28.2-26.4 28.1-81 28.2-21.9 28.2-45.1 28.2-16.9 28.2-31.7 28.1-27.8 28.2-1.8 28.2-1.7 28.2 21.1 28.2-17.6L698.9 75" stroke="#2C7F35" stroke-opacity=".7" stroke-width=".5" fill="none" class="World_2-border"/></g></g></g><g class="SourcesFooter" fill="#777"><g class="clickable" fill="#777"><text font-size="12.6" x="15" y="567"><tspan x="15" y="566.98">Source: United Nations Peacekeeping</tspan></text></g><text font-size="12.6" x="15" y="582.5"><tspan x="15" y="582.48"><a target="_blank" href="https://ourworldindata.org/wp-content/uploads/2016/09/MRTvsEffective_OWIDmarried-768x538.png" fill="#777">OurWorldInData.org/wp-content/uploads/2016/09/MRTvsEffective_OWIDmarried-768x538.png</a> • <a href="http://creativecommons.org/licenses/by-sa/4.0/deed.en_US" target="_blank" fill="#777">CC BY-SA</a></tspan></text></g></g></svg>

<svg xmlns="http://www.w3.org/2000/svg" version="1.1" style="font-family: 'Helvetica Neue', Helvetica, Arial, sans-serif; font-size: 18px; background-color: white; text-rendering: optimizeLegibility; -webkit-font-smoothing: antialiased;" width="850" height="600"><g class="ChartTab"><g class="HeaderView"><g opacity="0.8" transform="translate(770, 15) scale(0.31)"><a xmlns:xlink="http://www.w3.org/1999/xlink" xlink:href="https://ourworldindata.org" target="_blank"><g><rect x="0" y="0" fill="#1B2543" width="211.2" height="130.1"/><rect x="0" y="112.2" fill="#E63912" width="211.2" height="17.9"/><g><rect x="1.2" y="12.3" fill="none" width="210.2" height="99.2"/><path fill="#FFFFFF" d="M37.8,32.2c0,12.7-7.7,19.4-17.1,19.4c-9.7,0-16.6-7.5-16.6-18.7c0-11.7,7.3-19.3,17.1-19.3 C31.3,13.7,37.8,21.3,37.8,32.2z M9.2,32.8c0,7.9,4.3,14.9,11.8,14.9c7.5,0,11.8-6.9,11.8-15.3c0-7.3-3.8-14.9-11.8-14.9 C13.1,17.5,9.2,24.8,9.2,32.8z"/><path fill="#FFFFFF" d="M62.7,43.8c0,2.7,0.1,5.1,0.2,7.2h-4.3l-0.3-4.3h-0.1c-1.3,2.1-4,4.9-8.8,4.9c-4.2,0-9.1-2.3-9.1-11.6 V24.6h4.8v14.6c0,5,1.5,8.4,5.9,8.4c3.2,0,5.5-2.2,6.3-4.4c0.3-0.7,0.4-1.6,0.4-2.5V24.6h4.8V43.8z"/><path fill="#FFFFFF" d="M67.3,32.8c0-3.1-0.1-5.8-0.2-8.2h4.2l0.2,5.2h0.2c1.2-3.5,4.1-5.8,7.3-5.8c0.5,0,0.9,0.1,1.4,0.2v4.5 c-0.5-0.1-1-0.2-1.6-0.2c-3.4,0-5.8,2.6-6.5,6.2c-0.1,0.7-0.2,1.4-0.2,2.2V51h-4.8V32.8z"/><path fill="#FFFFFF" d="M95.4,51l-9.4-36.8h5l4.4,18.6c1.1,4.6,2.1,9.2,2.7,12.7h0.1c0.6-3.7,1.8-8,3-12.8l4.9-18.5h5l4.5,18.7 c1,4.4,2,8.7,2.6,12.6h0.1c0.8-4,1.8-8.1,3-12.7l4.9-18.5h4.9L120.6,51h-5L111,31.9c-1.1-4.7-1.9-8.3-2.4-12h-0.1 c-0.7,3.7-1.5,7.3-2.8,12L100.4,51H95.4z"/><path fill="#FFFFFF" d="M154.9,37.6c0,9.8-6.8,14-13.2,14c-7.2,0-12.7-5.2-12.7-13.6c0-8.8,5.8-14,13.1-14 C149.8,24,154.9,29.5,154.9,37.6z M133.9,37.9c0,5.8,3.3,10.1,8,10.1c4.6,0,8-4.3,8-10.3c0-4.5-2.2-10.1-7.9-10.1 C136.3,27.6,133.9,32.8,133.9,37.9z"/><path fill="#FFFFFF" d="M158.2,32.8c0-3.1-0.1-5.8-0.2-8.2h4.2l0.2,5.2h0.2c1.2-3.5,4.1-5.8,7.3-5.8c0.5,0,0.9,0.1,1.4,0.2v4.5 c-0.5-0.1-1-0.2-1.6-0.2c-3.4,0-5.8,2.6-6.5,6.2c-0.1,0.7-0.2,1.4-0.2,2.2V51h-4.8V32.8z"/><path fill="#FFFFFF" d="M173.5,12.3h4.8V51h-4.8V12.3z"/><path fill="#FFFFFF" d="M206.5,12.3v31.9c0,2.3,0.1,5,0.2,6.8h-4.3l-0.2-4.6H202c-1.5,2.9-4.7,5.2-9,5.2 c-6.4,0-11.3-5.4-11.3-13.4c-0.1-8.8,5.4-14.2,11.9-14.2c4,0,6.8,1.9,8,4h0.1V12.3H206.5z M201.7,35.4c0-0.6-0.1-1.4-0.2-2 c-0.7-3.1-3.3-5.6-6.9-5.6c-5,0-7.9,4.4-7.9,10.2c0,5.3,2.6,9.8,7.8,9.8c3.2,0,6.2-2.1,7.1-5.7c0.2-0.7,0.2-1.3,0.2-2.1V35.4z"/><path fill="#FFFFFF" d="M42.8,64c0.1,1.6-1.1,2.9-3.1,2.9c-1.7,0-2.9-1.3-2.9-2.9c0-1.7,1.3-3,3-3C41.7,61,42.8,62.3,42.8,64z M37.4,97.8V71.4h4.8v26.4H37.4z"/><path fill="#FFFFFF" d="M47.5,78.6c0-2.7-0.1-5-0.2-7.1h4.3l0.3,4.4h0.1c1.3-2.5,4.4-5,8.8-5c3.7,0,9.4,2.2,9.4,11.2v15.8h-4.8 V82.6c0-4.3-1.6-7.8-6.1-7.8c-3.2,0-5.6,2.2-6.5,4.9c-0.2,0.6-0.3,1.4-0.3,2.2v15.9h-4.8V78.6z"/><path fill="#FFFFFF" d="M84,61.6c2.9-0.4,6.3-0.8,10.1-0.8c6.8,0,11.7,1.6,14.9,4.6c3.3,3,5.2,7.3,5.2,13.2c0,6-1.9,10.9-5.3,14.3 c-3.4,3.4-9.1,5.3-16.3,5.3c-3.4,0-6.2-0.2-8.6-0.4V61.6z M88.8,94.1c1.2,0.2,3,0.3,4.8,0.3c10.2,0,15.7-5.7,15.7-15.6 c0.1-8.7-4.9-14.2-14.9-14.2c-2.5,0-4.3,0.2-5.6,0.5V94.1z"/><path fill="#FFFFFF" d="M132.1,97.8l-0.4-3.3h-0.2c-1.5,2.1-4.3,3.9-8.1,3.9c-5.4,0-8.1-3.8-8.1-7.6c0-6.4,5.7-9.9,15.9-9.8v-0.5 c0-2.2-0.6-6.1-6-6.1c-2.5,0-5,0.8-6.9,2l-1.1-3.2c2.2-1.4,5.4-2.3,8.7-2.3c8.1,0,10.1,5.5,10.1,10.8v9.9c0,2.3,0.1,4.5,0.4,6.3 H132.1z M131.4,84.4c-5.3-0.1-11.2,0.8-11.2,5.9c0,3.1,2.1,4.6,4.5,4.6c3.4,0,5.6-2.2,6.4-4.4c0.2-0.5,0.3-1,0.3-1.5V84.4z"/><path fill="#FFFFFF" d="M146.6,63.9v7.6h6.9v3.7h-6.9v14.2c0,3.3,0.9,5.1,3.6,5.1c1.3,0,2.2-0.2,2.8-0.3l0.2,3.6 c-0.9,0.4-2.4,0.7-4.3,0.7c-2.2,0-4-0.7-5.2-2c-1.4-1.4-1.9-3.8-1.9-6.9V75.1h-4.1v-3.7h4.1v-6.3L146.6,63.9z"/><path fill="#FFFFFF" d="M171.4,97.8l-0.4-3.3h-0.2c-1.5,2.1-4.3,3.9-8.1,3.9c-5.4,0-8.1-3.8-8.1-7.6c0-6.4,5.7-9.9,15.9-9.8v-0.5 c0-2.2-0.6-6.1-6-6.1c-2.5,0-5,0.8-6.9,2l-1.1-3.2c2.2-1.4,5.4-2.3,8.7-2.3c8.1,0,10.1,5.5,10.1,10.8v9.9c0,2.3,0.1,4.5,0.4,6.3 H171.4z M170.7,84.4c-5.3-0.1-11.2,0.8-11.2,5.9c0,3.1,2.1,4.6,4.5,4.6c3.4,0,5.6-2.2,6.4-4.4c0.2-0.5,0.3-1,0.3-1.5V84.4z"/></g></g></a></g><a href="https://ourworldindata.org/grapher/breakdown-of-united-nations-peacekeeping-forces" target="_blank"><text font-size="27.00" x="15.0" y="36.6" fill="#555"><tspan x="15" y="36.6">Breakdown of United Nations peacekeeping forces</tspan></text></a></g><g class="StackedArea"><defs><clipPath id="boundsClip-199"><rect x="78.968" y="0" width="820" height="933.8"></rect></clipPath></defs><g class="AxisBoxView"><g class="HorizontalAxis"><text x="79" y="541.9" fill="#666" text-anchor="middle" font-size="16.2">1992</text><text x="163.5" y="541.9" fill="#666" text-anchor="middle" font-size="16.2">1995</text><text x="304.4" y="541.9" fill="#666" text-anchor="middle" font-size="16.2">2000</text><text x="445.3" y="541.9" fill="#666" text-anchor="middle" font-size="16.2">2005</text><text x="586.2" y="541.9" fill="#666" text-anchor="middle" font-size="16.2">2010</text><text x="698.9" y="541.9" fill="#666" text-anchor="middle" font-size="16.2">2014</text></g><g class="VerticalAxis"><text x="73.97" y="520.7" fill="#666" dominant-baseline="middle" text-anchor="end" font-size="16.2">0</text><text x="73.97" y="435" fill="#666" dominant-baseline="middle" text-anchor="end" font-size="16.2">20,000</text><text x="73.97" y="349.4" fill="#666" dominant-baseline="middle" text-anchor="end" font-size="16.2">40,000</text><text x="73.97" y="263.7" fill="#666" dominant-baseline="middle" text-anchor="end" font-size="16.2">60,000</text><text x="73.97" y="178.1" fill="#666" dominant-baseline="middle" text-anchor="end" font-size="16.2">80,000</text><text x="73.97" y="92.4" fill="#666" dominant-baseline="middle" text-anchor="end" font-size="16.2">100,000</text></g><g class="AxisGridLines"><line x1="78.97" y1="520.7" x2="698.94" y2="520.7" stroke="#ccc"></line><line x1="78.97" y1="435" x2="698.94" y2="435" stroke="#ddd" stroke-dasharray="3,2"></line><line x1="78.97" y1="349.4" x2="698.94" y2="349.4" stroke="#ddd" stroke-dasharray="3,2"></line><line x1="78.97" y1="263.7" x2="698.94" y2="263.7" stroke="#ddd" stroke-dasharray="3,2"></line><line x1="78.97" y1="178.1" x2="698.94" y2="178.1" stroke="#ddd" stroke-dasharray="3,2"></line><line x1="78.97" y1="92.4" x2="698.94" y2="92.4" stroke="#ddd" stroke-dasharray="3,2"></line></g><g class="AxisGridLines"><line x1="163.5" y1="520.70" x2="163.5" y2="75.00" stroke="#ddd" stroke-dasharray="3,2"></line><line x1="304.4" y1="520.70" x2="304.4" y2="75.00" stroke="#ddd" stroke-dasharray="3,2"></line><line x1="445.3" y1="520.70" x2="445.3" y2="75.00" stroke="#ddd" stroke-dasharray="3,2"></line><line x1="586.2" y1="520.70" x2="586.2" y2="75.00" stroke="#ddd" stroke-dasharray="3,2"></line></g></g><g clip-path="url(#boundsClip-199)"><g class="HeightedLegend clickable"><g class="legendMark"><rect x="703.9359999999999" y="94.39999999999999" width="103.12800000000001" height="14.4" fill="#fff" opacity="0"></rect><rect x="703.9359999999999" y="100.35" width="10" height="2.5" fill="#34983f"></rect><text font-size="14.40" x="718.9" y="105.9" fill="#333"><tspan x="718.9359999999999" y="105.92">Civilian police</tspan></text></g><g class="legendMark"><rect x="703.9359999999999" y="124.89999999999999" width="131.06400000000002" height="14.4" fill="#fff" opacity="0"></rect><rect x="703.9359999999999" y="130.85" width="10" height="2.5" fill="#ca2628"></rect><text font-size="14.40" x="718.9" y="136.4" fill="#333"><tspan x="718.9359999999999" y="136.42">Military Observers</tspan></text></g><g class="legendMark"><rect x="703.9359999999999" y="321.1" width="59.928000000000004" height="14.4" fill="#fff" opacity="0"></rect><rect x="703.9359999999999" y="327.05" width="10" height="2.5" fill="#3360a9"></rect><text font-size="14.40" x="718.9" y="332.6" fill="#333"><tspan x="718.9359999999999" y="332.62">Troops</tspan></text></g></g><g class="Areas"><rect x="78.968" y="75" width="619.968" height="445.70000000000005" opacity="0" fill="rgba(255,255,255,0)"></rect><path stroke-linecap="round" d="M79 325.1L107.1 235.1L135.3 241.8L163.5 401L191.7 431.5L219.9 475L248.1 474.8L276.2 466L304.4 398.5L332.6 359.4L360.8 381.4L389 352.3L417.1 281.2L445.3 263.4L473.5 224.5L501.7 218.7L529.9 188.5L558 164.8L586.2 169.4L614.4 166.4L642.6 179.1L670.8 164L698.9 135.9L698.9359999999999 520.7L78.968 520.7" fill="#3360a9" fill-opacity="0.7" class="World_0-area"></path><path stroke-linecap="round" d="M79 316.2L107.1 225.5L135.3 232.1L163.5 392.5L191.7 425.7L219.9 470.4L248.1 470.9L276.2 460.6L304.4 392.2L332.6 351.7L360.8 373.7L389 344.3L417.1 272.5L445.3 252.6L473.5 213.7L501.7 207L529.9 177.2L558 154.9L586.2 159.6L614.4 157.9L642.6 170.7L670.8 156L698.9 128.3L698.9 135.9L670.8 164L642.6 179.1L614.4 166.4L586.2 169.4L558 164.8L529.9 188.5L501.7 218.7L473.5 224.5L445.3 263.4L417.1 281.2L389 352.3L360.8 381.4L332.6 359.4L304.4 398.5L276.2 466L248.1 474.8L219.9 475L191.7 431.5L163.5 401L135.3 241.8L107.1 235.1L79 325.1" fill="#ca2628" fill-opacity="0.7" class="World_1-area"></path><path stroke-linecap="round" d="M79 297.3L107.1 221.1L135.3 223.6L163.5 387.8L191.7 414L219.9 457L248.1 459.3L276.2 441.6L304.4 359.1L332.6 318.9L360.8 350.9L389 324.5L417.1 243.5L445.3 221.6L473.5 176.5L501.7 159.6L529.9 127.9L558 100.1L586.2 98.3L614.4 96.6L642.6 117.7L670.8 100.1L698.9 75L698.9 128.3L670.8 156L642.6 170.7L614.4 157.9L586.2 159.6L558 154.9L529.9 177.2L501.7 207L473.5 213.7L445.3 252.6L417.1 272.5L389 344.3L360.8 373.7L332.6 351.7L304.4 392.2L276.2 460.6L248.1 470.9L219.9 470.4L191.7 425.7L163.5 392.5L135.3 232.1L107.1 225.5L79 316.2" fill="#34983f" fill-opacity="0.7" class="World_2-area"></path><path stroke-linecap="round" d="M79 325.1L107.1 235.1L135.3 241.8L163.5 401L191.7 431.5L219.9 475L248.1 474.8L276.2 466L304.4 398.5L332.6 359.4L360.8 381.4L389 352.3L417.1 281.2L445.3 263.4L473.5 224.5L501.7 218.7L529.9 188.5L558 164.8L586.2 169.4L614.4 166.4L642.6 179.1L670.8 164L698.9 135.9" stroke="rgb(43, 80, 141)" stroke-opacity="0.7" stroke-width="0.5" fill="none" class="World_0-border"></path><path stroke-linecap="round" d="M79 316.2L107.1 225.5L135.3 232.1L163.5 392.5L191.7 425.7L219.9 470.4L248.1 470.9L276.2 460.6L304.4 392.2L332.6 351.7L360.8 373.7L389 344.3L417.1 272.5L445.3 252.6L473.5 213.7L501.7 207L529.9 177.2L558 154.9L586.2 159.6L614.4 157.9L642.6 170.7L670.8 156L698.9 128.3" stroke="rgb(169, 32, 33)" stroke-opacity="0.7" stroke-width="0.5" fill="none" class="World_1-border"></path><path stroke-linecap="round" d="M79 297.3L107.1 221.1L135.3 223.6L163.5 387.8L191.7 414L219.9 457L248.1 459.3L276.2 441.6L304.4 359.1L332.6 318.9L360.8 350.9L389 324.5L417.1 243.5L445.3 221.6L473.5 176.5L501.7 159.6L529.9 127.9L558 100.1L586.2 98.3L614.4 96.6L642.6 117.7L670.8 100.1L698.9 75" stroke="rgb(44, 127, 53)" stroke-opacity="0.7" stroke-width="0.5" fill="none" class="World_2-border"></path></g></g></g><g style="fill: #777;" class="SourcesFooter"><g style="fill: #777;" class="clickable"><text font-size="12.60" x="15.0" y="567.0"><tspan x="15" y="566.98">Source: United Nations Peacekeeping</tspan></text></g><text font-size="12.60" x="15.0" y="582.5"><tspan x="15" y="582.48"><a target='_blank' style='fill: #777;' href='https://ourworldindata.org/wp-content/uploads/2016/09/MRTvsEffective_OWIDmarried-768x538.png'>OurWorldInData.org/wp-content/uploads/2016/09/MRTvsEffective_OWIDmarried-768x538.png</a> • <a style="fill: #777;" href="http://creativecommons.org/licenses/by-sa/4.0/deed.en_US" target="_blank">CC BY-SA</a></tspan></text></g></g></svg>
